X: 27958
T: Mourne Shore, The
R: waltz
M: 3/4
K: Gmajor
G2 A2|B2 (3ABA G2|A2 AB d2|e2 ef ed|B3 d gd|e2 (3ded B2|A3 B GF|G6-|G3 D GA|
B2 A2- AG|A3 B d2|e6|d2 g2- gd|e2 d2 B2|A4 G2|G6-|G4||
d2|g2 f2- fd|e3 f g2|f2 d2 B2|d2 B2 d2|e3 d BA|Bd ef ga|g6-|g2 G2 A2|
BA- A2 G2|A2 B2 d2|e4 ge|d4 gd|e2 d2 B2|A4- AG|G6-|G2||

